images/logo.svg

<svg width="182" height="150" viewBox="0 0 182 150" fill="none" xmlns="http://www.w3.org/2000/svg">
<path d="M12.9746 95.7259C14.0788 96.0537 14.9242 96.5886 15.5108 97.3305C16.0974 98.0723 16.3907 98.9867 16.3907 100.074C16.3907 101.678 15.7782 102.929 14.5532 103.826C13.3455 104.723 11.6116 105.172 9.35145 105.172H0.423035V87.0563H8.85974C10.9646 87.0563 12.6036 87.4618 13.7768 88.2726C14.95 89.0835 15.5366 90.2395 15.5366 91.7405C15.5366 92.6376 15.3123 93.4313 14.8638 94.1214C14.4152 94.7943 13.7855 95.3291 12.9746 95.7259ZM4.58963 94.5614H8.49743C9.41183 94.5614 10.102 94.3802 10.5678 94.0179C11.0336 93.6383 11.2665 93.0862 11.2665 92.3616C11.2665 91.6542 11.025 91.1108 10.5419 90.7312C10.0761 90.3516 9.39458 90.1618 8.49743 90.1618H4.58963V94.5614ZM9.19617 102.066C11.163 102.066 12.1464 101.29 12.1464 99.7372C12.1464 98.2362 11.163 97.4857 9.19617 97.4857H4.58963V102.066H9.19617Z" fill="#9BA4AF"/>
<path d="M27.7548 86.7458C29.4283 86.7458 30.8862 87.0736 32.1284 87.7292C33.3706 88.3848 34.3368 89.351 35.0269 90.6277C35.717 91.9044 36.0621 93.4485 36.0621 95.2601V105.172H31.8696V100.824H23.5882V105.172H19.4475V95.2601C19.4475 93.4485 19.7925 91.9044 20.4826 90.6277C21.1728 89.351 22.1389 88.3848 23.3811 87.7292C24.6234 87.0736 26.0812 86.7458 27.7548 86.7458ZM31.8696 97.4599V94.8719C31.8696 93.3709 31.4987 92.2408 30.7568 91.4817C30.0149 90.7053 29.0056 90.3171 27.7289 90.3171C26.4349 90.3171 25.417 90.7053 24.6751 91.4817C23.9505 92.2408 23.5882 93.3709 23.5882 94.8719V97.4599H31.8696Z" fill="#9BA4AF"/>
<path d="M47.8346 86.8752C50.3708 86.8752 52.3462 87.4963 53.761 88.7385C55.193 89.9807 55.909 91.7232 55.909 93.9661C55.909 96.0882 55.262 97.7532 53.968 98.9609C52.6913 100.169 50.897 100.772 48.5851 100.772C47.826 100.772 47.0841 100.695 46.3595 100.54C45.6521 100.384 44.8843 100.125 44.0562 99.7631V105.172H39.9155V94.4578C39.9155 92.0252 40.5884 90.1532 41.9341 88.842C43.2971 87.5308 45.2639 86.8752 47.8346 86.8752ZM47.8605 97.6151C49.0854 97.6151 50.0257 97.3046 50.6813 96.6835C51.3542 96.0624 51.6906 95.1825 51.6906 94.0438C51.6906 92.8878 51.3542 91.9907 50.6813 91.3523C50.0257 90.7139 49.1113 90.3948 47.9381 90.3948C46.7132 90.3948 45.7556 90.7484 45.0655 91.4558C44.3926 92.1632 44.0562 93.1552 44.0562 94.432V96.4506C44.5738 96.8129 45.1604 97.0975 45.816 97.3046C46.4889 97.5116 47.1704 97.6151 47.8605 97.6151Z" fill="#9BA4AF"/>
<path d="M74.8752 87.0563V105.172H70.8121V102.972C69.5699 104.646 67.7411 105.482 65.3257 105.482C63.1863 105.482 61.5128 104.81 60.3051 103.464C59.1146 102.101 58.5194 100.169 58.5194 97.6669V87.0563H62.7118V97.5375C62.7118 98.9867 63.0483 100.082 63.7211 100.824C64.4113 101.549 65.3429 101.911 66.5161 101.911C67.7756 101.911 68.7849 101.523 69.544 100.747C70.3031 99.9529 70.6827 98.7883 70.6827 97.2528V87.0563H74.8752Z" fill="#9BA4AF"/>
<path d="M87.323 86.7458C88.9965 86.7458 90.4544 87.0736 91.6966 87.7292C92.9388 88.3848 93.905 89.351 94.5951 90.6277C95.2852 91.9044 95.6303 93.4485 95.6303 95.2601V105.172H91.4378V100.824H83.1564V105.172H79.0157V95.2601C79.0157 93.4485 79.3608 91.9044 80.0509 90.6277C80.741 89.351 81.7072 88.3848 82.9494 87.7292C84.1916 87.0736 85.6495 86.7458 87.323 86.7458ZM91.4378 97.4599V94.8719C91.4378 93.3709 91.0669 92.2408 90.325 91.4817C89.5831 90.7053 88.5738 90.3171 87.2971 90.3171C86.0031 90.3171 84.9852 90.7053 84.2433 91.4817C83.5187 92.2408 83.1564 93.3709 83.1564 94.8719V97.4599H91.4378Z" fill="#9BA4AF"/>
<path d="M113.232 92.1287C111.679 91.2315 110.014 90.6536 108.237 90.3948V105.172H104.045V90.3948C102.268 90.6536 100.594 91.2315 99.0239 92.1287L97.6006 88.9973C98.8428 88.2554 100.189 87.6947 101.638 87.3151C103.087 86.9355 104.579 86.7458 106.115 86.7458C107.668 86.7458 109.169 86.9355 110.618 87.3151C112.084 87.6947 113.43 88.2554 114.655 88.9973L113.232 92.1287Z" fill="#9BA4AF"/>
<path d="M148.664 86.8752C151.201 86.8752 153.176 87.4963 154.591 88.7385C156.023 89.9807 156.739 91.7232 156.739 93.9661C156.739 96.0882 156.092 97.7532 154.798 98.9609C153.521 100.169 151.727 100.772 149.415 100.772C148.656 100.772 147.914 100.695 147.189 100.54C146.482 100.384 145.714 100.125 144.886 99.7631V105.172H140.745V94.4578C140.745 92.0252 141.418 90.1532 142.764 88.842C144.127 87.5308 146.094 86.8752 148.664 86.8752ZM148.69 97.6151C149.915 97.6151 150.855 97.3046 151.511 96.6835C152.184 96.0624 152.52 95.1825 152.52 94.0438C152.52 92.8878 152.184 91.9907 151.511 91.3523C150.855 90.7139 149.941 90.3948 148.768 90.3948C147.543 90.3948 146.585 90.7484 145.895 91.4558C145.222 92.1632 144.886 93.1552 144.886 94.432V96.4506C145.404 96.8129 145.99 97.0975 146.646 97.3046C147.319 97.5116 148 97.6151 148.69 97.6151Z" fill="#9BA4AF"/>
<path d="M168.15 92.5169C170.324 92.5169 172.041 93.0776 173.3 94.199C174.577 95.3205 175.215 96.8905 175.215 98.9091C175.215 101.014 174.508 102.644 173.093 103.8C171.678 104.956 169.668 105.534 167.063 105.534C164.492 105.534 162.543 104.956 161.214 103.8C159.886 102.644 159.222 100.945 159.222 98.7021V87.0563H163.362V93.5779C165.001 92.8706 166.597 92.5169 168.15 92.5169ZM181.633 87.0563V105.172H177.492V87.0563H181.633ZM167.244 102.273C168.435 102.273 169.358 101.989 170.013 101.419C170.669 100.85 170.997 100.056 170.997 99.0385C170.997 97.9861 170.643 97.1752 169.936 96.6058C169.246 96.0192 168.323 95.7259 167.167 95.7259C166.528 95.7259 165.873 95.8294 165.2 96.0365C164.527 96.2263 163.914 96.5023 163.362 96.8646V98.5985C163.362 99.7717 163.699 100.678 164.372 101.316C165.044 101.954 166.002 102.273 167.244 102.273Z" fill="#9BA4AF"/>
<path d="M29.1368 46.1254C32.3976 46.1254 35.3324 46.8552 37.941 48.3148C40.5807 49.7744 42.6459 51.793 44.1366 54.3706C45.6272 56.9171 46.3725 59.7897 46.3725 62.9884C46.3725 66.1871 45.6272 69.0753 44.1366 71.6529C42.6459 74.1994 40.5807 76.2025 37.941 77.6621C35.3324 79.1217 32.3976 79.8515 29.1368 79.8515C26.2176 79.8515 23.5469 79.2769 21.1245 78.1279C18.7022 76.9478 16.6992 75.3174 15.1153 73.2367C13.5626 71.1249 12.5688 68.7181 12.134 66.0163H7.84838V79.2925H0.348511V46.6844H7.84838V59.4947H12.2272C12.7241 56.886 13.7489 54.5724 15.3017 52.5538C16.8855 50.5042 18.873 48.9203 21.2643 47.8024C23.6555 46.6844 26.2797 46.1254 29.1368 46.1254ZM29.1368 73.423C30.938 73.423 32.5684 72.9882 34.028 72.1187C35.4876 71.2491 36.6367 70.0224 37.4752 68.4386C38.3137 66.8548 38.7329 65.0381 38.7329 62.9884C38.7329 60.9388 38.3137 59.122 37.4752 57.5382C36.6367 55.9544 35.4876 54.7277 34.028 53.8581C32.5684 52.9886 30.938 52.5538 29.1368 52.5538C27.3356 52.5538 25.7052 52.9886 24.2456 53.8581C22.786 54.7277 21.6369 55.9544 20.7985 57.5382C19.96 59.122 19.5407 60.9388 19.5407 62.9884C19.5407 65.0381 19.96 66.8548 20.7985 68.4386C21.6369 70.0224 22.786 71.2491 24.2456 72.1187C25.7052 72.9882 27.3356 73.423 29.1368 73.423Z" fill="black"/>
<path d="M77.9678 46.6844V79.2925H70.4214V65.9231H55.608V79.2925H48.0615V46.6844H55.608V59.5413H70.4214V46.6844H77.9678Z" fill="black"/>
<path d="M110.92 46.6844V79.2925H103.606V75.3329C101.37 78.3453 98.0785 79.8515 93.7307 79.8515C89.8799 79.8515 86.8675 78.6403 84.6936 76.218C82.5508 73.7646 81.4794 70.2864 81.4794 65.7834V46.6844H89.0258V65.5505C89.0258 68.1591 89.6314 70.1311 90.8426 71.4665C92.0848 72.7708 93.7618 73.423 95.8735 73.423C98.1406 73.423 99.9573 72.7243 101.324 71.3268C102.69 69.8982 103.373 67.802 103.373 65.0381V46.6844H110.92Z" fill="black"/>
<path d="M181.651 46.6844V79.2925H174.105V65.9231H159.292V79.2925H151.745V46.6844H159.292V59.5413H174.105V46.6844H181.651Z" fill="black"/>
<path fill-rule="evenodd" clip-rule="evenodd" d="M131.792 75.4106C138.224 75.4106 143.438 70.1966 143.438 63.7648C143.438 57.333 138.224 52.1191 131.792 52.1191C125.36 52.1191 120.146 57.333 120.146 63.7648C120.146 70.1966 125.36 75.4106 131.792 75.4106ZM131.792 81.8804C141.797 81.8804 149.908 73.7698 149.908 63.7648C149.908 53.7598 141.797 45.6492 131.792 45.6492C121.787 45.6492 113.677 53.7598 113.677 63.7648C113.677 73.7698 121.787 81.8804 131.792 81.8804Z" fill="#3E5ABE"/>
<path fill-rule="evenodd" clip-rule="evenodd" d="M126.336 99.6092C128.433 99.6092 130.132 97.9096 130.132 95.8131C130.132 93.7165 128.433 92.0169 126.336 92.0169C124.24 92.0169 122.54 93.7165 122.54 95.8131C122.54 97.9096 124.24 99.6092 126.336 99.6092ZM126.336 105.032C131.428 105.032 135.555 100.905 135.555 95.8131C135.555 90.7214 131.428 86.5938 126.336 86.5938C121.244 86.5938 117.117 90.7214 117.117 95.8131C117.117 100.905 121.244 105.032 126.336 105.032Z" fill="#3E5ABE"/>
<path fill-rule="evenodd" clip-rule="evenodd" d="M117.661 64.335L121.283 96.8705L117.404 97.0356L113.783 64.5L117.661 64.335ZM148.33 71.0766L134.83 99.0766L131.283 97.5L144.783 69.5L148.33 71.0766Z" fill="#3E5ABE"/>
<g opacity="0.5">
<path d="M28.7596 29.5925L27.5999 31.1478L32.1716 38.0815H38.796L34.3655 31.3619C37.1274 27.8243 40.0145 24.7013 43.1624 21.7753L54.1154 27.8435L63.217 22.2276L62.5028 9.86307C66.4479 8.41607 70.6207 7.17936 74.8964 6.35071L81.7293 17.618L83.4673 17.3534C86.2679 17.1061 88.7516 16.899 90.921 17.0961L92.8062 17.2674L98.4598 5.88056C103.004 6.44679 107.251 7.53538 111.345 8.94614L111.78 21.7723L121.217 27.5423L131.873 20.6786C135.565 23.539 138.819 26.5244 141.871 29.7823L138.612 38.0815H144.553L148.277 28.6013L147.13 27.3306C143.1 22.8665 138.766 18.8806 133.649 15.0855L132.113 13.9457L121.141 21.0131L117.207 18.6078L116.746 5.02446L115.004 4.38061C109.485 2.34084 103.604 0.763151 97.09 0.171289L95.2048 0L89.4992 11.4915C87.8744 11.4678 86.2098 11.5729 84.6107 11.7037L77.6719 0.261786L75.8274 0.565584C69.7567 1.56543 63.9209 3.35195 58.6202 5.41947L56.7486 6.14951L57.5055 19.2532L53.9651 21.4377L42.3957 15.028L40.9318 16.3296C36.484 20.2841 32.5209 24.548 28.7596 29.5925Z" fill="#9BA4AF"/>
<path d="M140.846 111.866H147.47L152.076 118.852L150.916 120.408C147.155 125.452 143.192 129.716 138.744 133.67L137.28 134.972L125.711 128.562L122.17 130.747L122.927 143.851L121.056 144.581C115.755 146.648 109.919 148.435 103.848 149.434L102.004 149.738L95.0651 138.296C93.466 138.427 91.8013 138.532 90.1765 138.508L84.471 150L82.5858 149.829C76.0719 149.237 70.1909 147.659 64.6717 145.619L62.9296 144.976L62.469 131.392L58.5351 128.987L47.563 136.054L46.0265 134.915C40.9101 131.119 36.5758 127.134 32.5458 122.669L31.2847 121.272L35.9548 111.866H42.1295L37.9213 120.342C40.9402 123.552 44.1578 126.497 47.8026 129.321L58.4585 122.458L67.8954 128.228L68.3303 141.054C72.4251 142.465 76.6717 143.553 81.216 144.119L86.8696 132.733L88.7548 132.904C90.9466 133.103 93.4593 132.89 96.2954 132.639L98.0105 132.487L104.779 143.649C109.055 142.821 113.228 141.584 117.173 140.137L116.459 127.772L125.56 122.157L136.513 128.225C139.661 125.299 142.548 122.176 145.31 118.638L140.846 111.866Z" fill="#9BA4AF"/>
</g>
</svg>

<svg width="182" height="150" fill="none" xmlns="http://www.w3.org/2000/svg"><path d="M12.975 95.726c1.104.328 1.95.863 2.536 1.605.586.741.88 1.656.88 2.743 0 1.604-.613 2.855-1.838 3.752-1.208.897-2.941 1.346-5.202 1.346H.423V87.056H8.86c2.105 0 3.744.406 4.917 1.217 1.173.81 1.76 1.967 1.76 3.468 0 .897-.225 1.69-.673 2.38-.449.673-1.079 1.208-1.89 1.605ZM4.59 94.56h3.907c.915 0 1.605-.18 2.07-.543.467-.38.7-.932.7-1.656 0-.708-.242-1.251-.725-1.63-.466-.38-1.147-.57-2.045-.57H4.59v4.4Zm4.606 7.505c1.967 0 2.95-.776 2.95-2.329 0-1.5-.983-2.251-2.95-2.251H4.59v4.58h4.606ZM27.755 86.746c1.673 0 3.131.328 4.373.983 1.243.656 2.209 1.622 2.899 2.899.69 1.276 1.035 2.82 1.035 4.632v9.912H31.87v-4.348h-8.282v4.348h-4.14V95.26c0-1.812.345-3.356 1.035-4.632.69-1.277 1.656-2.243 2.898-2.899 1.242-.655 2.7-.983 4.374-.983ZM31.87 97.46v-2.588c0-1.501-.371-2.631-1.113-3.39-.742-.777-1.751-1.165-3.028-1.165-1.294 0-2.312.388-3.054 1.165-.724.759-1.087 1.889-1.087 3.39v2.588h8.282ZM47.835 86.875c2.536 0 4.511.621 5.926 1.864 1.432 1.242 2.148 2.984 2.148 5.227 0 2.122-.647 3.787-1.941 4.995-1.277 1.208-3.071 1.811-5.383 1.811-.759 0-1.5-.077-2.226-.232-.707-.156-1.475-.415-2.303-.777v5.409h-4.14V94.458c0-2.433.672-4.305 2.018-5.616 1.363-1.311 3.33-1.967 5.9-1.967Zm.026 10.74c1.224 0 2.165-.31 2.82-.931.673-.622 1.01-1.501 1.01-2.64 0-1.156-.337-2.053-1.01-2.692-.655-.638-1.57-.957-2.743-.957-1.225 0-2.182.353-2.873 1.06-.672.708-1.009 1.7-1.009 2.977v2.019a6.415 6.415 0 0 0 1.76.854c.673.207 1.354.31 2.044.31ZM74.875 87.056v18.116h-4.063v-2.2c-1.242 1.674-3.07 2.51-5.486 2.51-2.14 0-3.813-.672-5.02-2.018-1.191-1.363-1.787-3.295-1.787-5.797v-10.61h4.193v10.48c0 1.45.336 2.545 1.01 3.287.69.725 1.62 1.087 2.794 1.087 1.26 0 2.269-.388 3.028-1.164.76-.794 1.139-1.959 1.139-3.494V87.056h4.192ZM87.323 86.746c1.674 0 3.131.328 4.374.983 1.242.656 2.208 1.622 2.898 2.899.69 1.276 1.035 2.82 1.035 4.632v9.912h-4.192v-4.348h-8.282v4.348h-4.14V95.26c0-1.812.345-3.356 1.035-4.632.69-1.277 1.656-2.243 2.898-2.899 1.243-.655 2.7-.983 4.374-.983Zm4.115 10.714v-2.588c0-1.501-.371-2.631-1.113-3.39-.742-.777-1.751-1.165-3.028-1.165-1.294 0-2.312.388-3.054 1.165-.724.759-1.087 1.889-1.087 3.39v2.588h8.282ZM113.232 92.129a13.9 13.9 0 0 0-4.995-1.734v14.777h-4.192V90.395a14.144 14.144 0 0 0-5.021 1.734L97.6 88.997a15.48 15.48 0 0 1 4.037-1.682 17.59 17.59 0 0 1 4.477-.57c1.553 0 3.054.19 4.503.57 1.466.38 2.812.94 4.037 1.682l-1.423 3.132ZM148.664 86.875c2.537 0 4.512.621 5.927 1.864 1.432 1.242 2.148 2.984 2.148 5.227 0 2.122-.647 3.787-1.941 4.995-1.277 1.208-3.071 1.811-5.383 1.811-.759 0-1.501-.077-2.226-.232a12.58 12.58 0 0 1-2.303-.777v5.409h-4.141V94.458c0-2.433.673-4.305 2.019-5.616 1.363-1.311 3.33-1.967 5.9-1.967Zm.026 10.74c1.225 0 2.165-.31 2.821-.931.673-.622 1.009-1.501 1.009-2.64 0-1.156-.336-2.053-1.009-2.692-.656-.638-1.57-.957-2.743-.957-1.225 0-2.183.353-2.873 1.06-.673.708-1.009 1.7-1.009 2.977v2.019a6.417 6.417 0 0 0 1.76.854c.673.207 1.354.31 2.044.31ZM168.15 92.517c2.174 0 3.891.56 5.15 1.682 1.277 1.121 1.915 2.692 1.915 4.71 0 2.105-.707 3.735-2.122 4.891-1.415 1.156-3.425 1.734-6.03 1.734-2.571 0-4.52-.578-5.849-1.734-1.328-1.156-1.992-2.855-1.992-5.098V87.056h4.14v6.522c1.639-.707 3.235-1.061 4.788-1.061Zm13.483-5.46v18.115h-4.141V87.056h4.141Zm-14.389 15.216c1.191 0 2.114-.284 2.769-.854.656-.569.984-1.363.984-2.38 0-1.053-.354-1.864-1.061-2.433-.69-.587-1.613-.88-2.769-.88-.639 0-1.294.103-1.967.31a6.582 6.582 0 0 0-1.838.829v1.734c0 1.173.337 2.079 1.01 2.717.672.638 1.63.957 2.872.957Z" fill="#9BA4AF"/><path d="M29.137 46.125c3.26 0 6.195.73 8.804 2.19 2.64 1.46 4.705 3.478 6.196 6.056 1.49 2.546 2.236 5.419 2.236 8.617 0 3.2-.746 6.087-2.236 8.665-1.491 2.546-3.556 4.55-6.196 6.01-2.609 1.459-5.543 2.189-8.804 2.189-2.92 0-5.59-.575-8.012-1.724-2.423-1.18-4.426-2.81-6.01-4.891-1.552-2.112-2.546-4.519-2.981-7.22H7.848v13.276h-7.5V46.684h7.5v12.81h4.38c.496-2.608 1.52-4.922 3.074-6.94 1.584-2.05 3.571-3.634 5.962-4.752 2.392-1.118 5.016-1.677 7.873-1.677Zm0 27.298c1.801 0 3.431-.435 4.891-1.304 1.46-.87 2.609-2.097 3.447-3.68.839-1.584 1.258-3.4 1.258-5.45 0-2.05-.42-3.867-1.258-5.45-.838-1.585-1.987-2.811-3.447-3.68-1.46-.87-3.09-1.305-4.891-1.305-1.801 0-3.432.435-4.891 1.304-1.46.87-2.61 2.096-3.447 3.68-.839 1.584-1.258 3.4-1.258 5.45 0 2.05.419 3.867 1.258 5.45.838 1.584 1.987 2.811 3.447 3.68 1.46.87 3.09 1.305 4.89 1.305ZM77.968 46.684v32.609H70.42v-13.37H55.608v13.37h-7.546V46.684h7.546v12.857h14.813V46.684h7.547ZM110.92 46.684v32.609h-7.314v-3.96c-2.236 3.012-5.527 4.519-9.875 4.519-3.851 0-6.863-1.212-9.037-3.634-2.143-2.453-3.215-5.932-3.215-10.435V46.684h7.547v18.867c0 2.608.605 4.58 1.817 5.915 1.242 1.305 2.919 1.957 5.03 1.957 2.268 0 4.084-.699 5.451-2.096 1.366-1.429 2.049-3.525 2.049-6.289V46.684h7.547ZM181.651 46.684v32.609h-7.546v-13.37h-14.813v13.37h-7.547V46.684h7.547v12.857h14.813V46.684h7.546Z" fill="#000"/><path fill-rule="evenodd" clip-rule="evenodd" d="M131.792 75.41c6.432 0 11.646-5.213 11.646-11.645 0-6.432-5.214-11.646-11.646-11.646s-11.646 5.214-11.646 11.646 5.214 11.646 11.646 11.646Zm0 6.47c10.005 0 18.116-8.11 18.116-18.115 0-10.005-8.111-18.116-18.116-18.116-10.005 0-18.115 8.11-18.115 18.116 0 10.005 8.11 18.115 18.115 18.115ZM126.336 99.61a3.796 3.796 0 1 0 0-7.592 3.796 3.796 0 0 0 0 7.591Zm0 5.422a9.218 9.218 0 0 0 9.219-9.219 9.219 9.219 0 0 0-9.219-9.22 9.219 9.219 0 0 0-9.219 9.22 9.218 9.218 0 0 0 9.219 9.219Z" fill="#3E5ABE"/><path fill-rule="evenodd" clip-rule="evenodd" d="m117.661 64.335 3.622 32.536-3.879.165-3.621-32.536 3.878-.165Zm30.669 6.742-13.5 28-3.547-1.577 13.5-28 3.547 1.577Z" fill="#3E5ABE"/><g opacity=".5" fill="#9BA4AF"><path d="m28.76 29.593-1.16 1.555 4.572 6.933h6.624l-4.43-6.72a80.976 80.976 0 0 1 8.796-9.586l10.953 6.069 9.102-5.616-.714-12.365c3.945-1.447 8.118-2.684 12.393-3.512l6.833 11.267 1.738-.265c2.8-.247 5.285-.454 7.454-.257l1.885.171L98.46 5.881c4.544.566 8.791 1.654 12.885 3.065l.435 12.826 9.437 5.77 10.656-6.863a84.211 84.211 0 0 1 9.998 9.103l-3.259 8.3h5.941l3.724-9.48-1.147-1.271a90.385 90.385 0 0 0-13.481-12.245l-1.536-1.14-10.972 7.067-3.934-2.405-.461-13.584-1.742-.643C109.485 2.34 103.604.763 97.09.17L95.205 0l-5.706 11.492c-1.625-.024-3.29.08-4.888.212L77.67.262l-1.844.304c-6.07 1-11.906 2.786-17.207 4.853l-1.871.73.756 13.104-3.54 2.185-11.57-6.41-1.463 1.302A87.134 87.134 0 0 0 28.76 29.593ZM140.846 111.866h6.624l4.606 6.986-1.16 1.556a87.1 87.1 0 0 1-12.172 13.262l-1.464 1.302-11.569-6.41-3.541 2.185.757 13.104-1.871.73c-5.301 2.067-11.137 3.854-17.208 4.853l-1.844.304-6.939-11.442c-1.599.131-3.264.236-4.888.212L84.47 150l-1.885-.171c-6.514-.592-12.395-2.17-17.914-4.21l-1.742-.643-.461-13.584-3.934-2.405-10.972 7.067-1.537-1.139a90.417 90.417 0 0 1-13.48-12.246l-1.261-1.397 4.67-9.406h6.175l-4.209 8.476a84.216 84.216 0 0 0 9.882 8.979l10.656-6.863 9.436 5.77.435 12.826c4.095 1.411 8.342 2.499 12.886 3.065l5.654-11.386 1.885.171c2.192.199 4.704-.014 7.54-.265l1.715-.152 6.769 11.162c4.276-.828 8.449-2.065 12.394-3.512l-.714-12.365 9.101-5.615 10.953 6.068a80.95 80.95 0 0 0 8.797-9.587l-4.464-6.772Z"/></g></svg>
